icons/14x14_overview_filled.svg

<svg width="14" height="14" fill="none" xmlns="http://www.w3.org/2000/svg"><path fill-rule="evenodd" clip-rule="evenodd" d="M2 2h4v4H2V2Zm0 6h4v4H2V8Zm6 0h4v4H8V8Zm0-6h4v4H8V2Z" fill="#000"/></svg>

<svg xmlns="http://www.w3.org/2000/svg" width="14" height="14" viewBox="0 0 14 14">
  <path fill-rule="evenodd" d="M2,2 L6,2 L6,6 L2,6 L2,2 Z M2,8 L6,8 L6,12 L2,12 L2,8 Z M8,8 L12,8 L12,12 L8,12 L8,8 Z M8,2 L12,2 L12,6 L8,6 L8,2 Z"/>
</svg>
